build/img/dribble.svg

<svg width="20" height="20" viewBox="0 0 20 20" fill="none" xmlns="http://www.w3.org/2000/svg">
<path d="M0 10.5878C0 10.1973 0 9.80674 0 9.41623C0.0121316 9.34697 0.0258286 9.2781 0.0360035 9.20884C0.0986182 8.77841 0.13423 8.34212 0.226587 7.91795C0.748637 5.51657 1.98215 3.54913 3.93847 2.06729C6.37183 0.22429 9.11279 -0.387306 12.1011 0.236029C14.4934 0.734932 16.4379 1.98825 17.9254 3.92126C19.5315 6.00882 20.1999 8.38594 19.9487 11.0021C19.7452 13.1222 18.9218 14.9938 17.509 16.5914C15.9601 18.3429 14.0308 19.4338 11.7242 19.8443C11.3477 19.9112 10.9662 19.9487 10.587 20C10.1964 20 9.80547 20 9.41491 20C9.36481 19.989 9.31472 19.9714 9.26424 19.9679C7.69965 19.8576 6.23603 19.4103 4.90078 18.5921C2.31009 17.0046 0.715373 14.7163 0.155754 11.7221C0.0857039 11.3473 0.0508745 10.9661 0 10.5878ZM4.77437 16.5421C7.12947 18.5096 10.6934 18.9642 13.4645 17.6264C13.1264 15.5584 12.5351 13.5581 11.7884 11.6028C9.85282 11.9393 6.18164 14.5277 4.77437 16.5421ZM3.60152 15.4207C4.60923 14.1904 5.73629 13.1261 7.01128 12.2206C8.29058 11.3121 9.66615 10.5909 11.1834 10.0998C10.8926 9.48157 10.6093 8.87898 10.3213 8.26621C7.48285 9.22332 4.57988 9.62596 1.61037 9.66157C1.56498 11.834 2.21147 13.7373 3.60152 15.4207ZM6.63599 2.32633C4.19206 3.36288 2.36488 5.67113 1.85418 8.05021C4.47265 7.99582 7.03633 7.62957 9.55266 6.82311C8.67644 5.25557 7.71687 3.75926 6.63599 2.32633ZM11.8479 7.67887C12.1461 8.33194 12.4341 8.97054 12.7335 9.60366C12.7527 9.64396 12.8599 9.67018 12.9182 9.66C14.6808 9.34618 16.4395 9.37005 18.1958 9.71087C18.2549 9.72222 18.3164 9.72222 18.3856 9.72848C18.3062 7.84204 17.6847 6.18921 16.5146 4.72106C15.1277 5.98456 13.5561 6.93619 11.8479 7.67887ZM11.136 6.2256C12.2737 5.85621 14.6569 4.36929 15.3754 3.56791C14.0582 2.47385 12.5468 1.83565 10.8472 1.65526C9.98705 1.56409 9.12923 1.59696 8.32032 1.78869C9.26072 3.27014 10.196 4.74415 11.136 6.2256ZM14.9438 16.7804C16.7655 15.3839 17.8839 13.6086 18.2858 11.3688C16.6528 11.0033 15.0326 10.9243 13.3698 11.2041C14.0492 13.0224 14.5791 14.8537 14.9438 16.7804Z" fill="#8B8B8B"/>
</svg>

<svg width="20" height="20" fill="none" xmlns="http://www.w3.org/2000/svg"><path d="M0 10.588V9.416c.012-.069.026-.138.036-.207.063-.43.098-.867.19-1.291.523-2.401 1.756-4.369 3.712-5.85C6.372.223 9.113-.388 12.101.235c2.392.499 4.337 1.752 5.824 3.685 1.607 2.088 2.275 4.465 2.024 7.081-.204 2.12-1.027 3.992-2.44 5.59-1.549 1.75-3.478 2.842-5.785 3.252-.376.067-.758.105-1.137.156H9.415c-.05-.011-.1-.029-.15-.032-1.565-.11-3.029-.558-4.364-1.376-2.59-1.587-4.186-3.876-4.745-6.87-.07-.375-.105-.756-.156-1.134zm4.774 5.954c2.355 1.968 5.92 2.422 8.69 1.084-.338-2.068-.929-4.068-1.676-6.023-1.935.336-5.606 2.925-7.014 4.94zm-1.172-1.121a17.444 17.444 0 013.41-3.2c1.279-.909 2.654-1.63 4.171-2.121l-.862-1.834c-2.838.957-5.741 1.36-8.71 1.396-.046 2.172.6 4.075 1.99 5.759zM6.636 2.326C4.192 3.363 2.365 5.671 1.854 8.05c2.619-.054 5.182-.42 7.699-1.227a39.139 39.139 0 00-2.917-4.497zm5.212 5.353c.298.653.586 1.292.885 1.925.02.04.127.066.185.056a14.306 14.306 0 015.278.05c.059.012.12.012.19.018-.08-1.886-.701-3.539-1.871-5.007-1.387 1.264-2.959 2.215-4.667 2.958zm-.712-1.453c1.138-.37 3.52-1.857 4.24-2.658a8.318 8.318 0 00-4.529-1.913c-.86-.09-1.718-.058-2.527.134l2.816 4.437zm3.808 10.554c1.821-1.396 2.94-3.171 3.342-5.411-1.633-.366-3.253-.445-4.916-.165a33.62 33.62 0 011.574 5.576z" fill="#8B8B8B"/></svg>
